X: 21221
M: C|
L: 1/8
K: Dm
|: fg |\
.a2.f2 .f2ga | .g2.c2 .c2de | .f2.d2 .d2ef | e2A2 A2FG |\
({B}A^GA).B A2FG | ({B}A^GA).B A2f2 | e2d2 (fe)d^c | d4- d2 :|


